X:1
T:The Clumsy Lover
M:6/8
L:1/8
Q:80
C:Neil Dickie
S:Jig
K:HP
|: d{g}ce{A}e{g}eAe{g}dfAgfd{g}ce{A}e{g}eAe{g}dB{G}B{gBG}B2 | \
d{g}ce{A}e{g}eAe{g}dfAgfd{g}cec{gde}dBG{g}B{d}A{e}A{GAG}A2 :: \
d{g}ce{A}eaec{g}de{A}eafd{g}ce{A}eaec{g}dB{G}B{gBG}B2 |
d{g}ce{A}eaec{g}de{A}eafd{g}cec{gde}dBG{g}B{d}A{e}A{GAG}A2:| [ | \
d{g}ce{A}e{g}eAe{g}d{G}df{a}gfd{g}ce{A}eaee{g}dB{G}B{gBG}B2 | \
d{g}ce{A}e{g}eAe{g}d{G}df{a}gfd{g}cec{gde}dBG{g}B{d}A{e}A{GAG}A2|] [ |
